svgs/themed_icon_calendar_18.svg

<svg height="192" width="192" xmlns="http://www.w3.org/2000/svg"><path d="M146 30H46c-8.837 0-16 7.163-16 16v100c0 8.837 7.163 16 16 16h75.373a16 16 0 0 0 11.313-4.686l24.628-24.628A16 16 0 0 0 162 121.373V46c0-8.837-7.163-16-16-16Z" stroke="#000" stroke-width="12" fill="none"/><path d="M64.852 120c-3.168 0-4.752-1.536-4.752-4.608 0-3.024 1.584-4.536 4.752-4.536h7.272V81.624l-5.256 3.168c-1.392.816-2.64 1.032-3.744.648s-1.944-1.104-2.52-2.16c-.576-1.056-.744-2.184-.504-3.384.24-1.248 1.032-2.304 2.376-3.168l10.008-6.048a17.78 17.78 0 0 1 3.024-1.512c1.056-.384 2.088-.576 3.096-.576 1.44 0 2.568.384 3.384 1.152.864.768 1.296 1.896 1.296 3.384v37.728h6.552c3.12 0 4.68 1.512 4.68 4.536 0 3.072-1.56 4.608-4.68 4.608H64.852Zm52.028.792c-6.048 0-10.776-1.272-14.184-3.816-3.408-2.592-5.112-6.192-5.112-10.8 0-2.976.744-5.544 2.232-7.704 1.536-2.16 3.552-3.696 6.048-4.608-2.112-1.056-3.816-2.592-5.112-4.608-1.248-2.064-1.872-4.392-1.872-6.984 0-4.32 1.608-7.704 4.824-10.152 3.264-2.448 7.656-3.672 13.176-3.672 5.52 0 9.912 1.224 13.176 3.672 3.264 2.448 4.896 5.832 4.896 10.152 0 2.64-.648 4.992-1.944 7.056-1.248 2.064-2.928 3.576-5.04 4.536 2.496.96 4.488 2.52 5.976 4.68 1.488 2.16 2.232 4.704 2.232 7.632 0 4.608-1.704 8.208-5.112 10.8-3.408 2.544-8.136 3.816-14.184 3.816Zm0-30.744c2.448 0 4.344-.576 5.688-1.728 1.392-1.2 2.088-2.808 2.088-4.824s-.696-3.6-2.088-4.752c-1.344-1.152-3.24-1.728-5.688-1.728-2.448 0-4.344.576-5.688 1.728-1.344 1.152-2.016 2.736-2.016 4.752 0 2.016.672 3.624 2.016 4.824 1.344 1.152 3.24 1.728 5.688 1.728Zm0 22.176c6.048 0 9.072-2.28 9.072-6.84 0-4.512-3.024-6.768-9.072-6.768-2.928 0-5.184.576-6.768 1.728-1.536 1.104-2.304 2.784-2.304 5.04 0 2.256.768 3.96 2.304 5.112 1.584 1.152 3.84 1.728 6.768 1.728Z"/></svg>

<?xml version="1.0" encoding="UTF-8" standalone="no"?><svg xmlns:android="http://schemas.android.com/apk/res/android" height="192" width="192" xmlns="http://www.w3.org/2000/svg">
  <path d="M146,30H46C37.163,30 30,37.163 30,46V146C30,154.837 37.163,162 46,162H121.373C125.616,162 129.686,160.314 132.686,157.314L157.314,132.686C160.314,129.686 162,125.616 162,121.373V46C162,37.163 154.837,30 146,30Z" fill="#000000" fill-opacity="0.0" stroke="#000000" stroke-width="12"/>
  <path d="M64.852,120C61.684,120 60.1,118.464 60.1,115.392C60.1,112.368 61.684,110.856 64.852,110.856H72.124V81.624L66.868,84.792C65.476,85.608 64.228,85.824 63.124,85.44C62.02,85.056 61.18,84.336 60.604,83.28C60.028,82.224 59.86,81.096 60.1,79.896C60.34,78.648 61.132,77.592 62.476,76.728L72.484,70.68C73.492,70.056 74.5,69.552 75.508,69.168C76.564,68.784 77.596,68.592 78.604,68.592C80.044,68.592 81.172,68.976 81.988,69.744C82.852,70.512 83.284,71.64 83.284,73.128V110.856H89.836C92.956,110.856 94.516,112.368 94.516,115.392C94.516,118.464 92.956,120 89.836,120H64.852ZM116.88,120.792C110.832,120.792 106.104,119.52 102.696,116.976C99.288,114.384 97.584,110.784 97.584,106.176C97.584,103.2 98.328,100.632 99.816,98.472C101.352,96.312 103.368,94.776 105.864,93.864C103.752,92.808 102.048,91.272 100.752,89.256C99.504,87.192 98.88,84.864 98.88,82.272C98.88,77.952 100.488,74.568 103.704,72.12C106.968,69.672 111.36,68.448 116.88,68.448C122.4,68.448 126.792,69.672 130.056,72.12C133.32,74.568 134.952,77.952 134.952,82.272C134.952,84.912 134.304,87.264 133.008,89.328C131.76,91.392 130.08,92.904 127.968,93.864C130.464,94.824 132.456,96.384 133.944,98.544C135.432,100.704 136.176,103.248 136.176,106.176C136.176,110.784 134.472,114.384 131.064,116.976C127.656,119.52 122.928,120.792 116.88,120.792ZM116.88,90.048C119.328,90.048 121.224,89.472 122.568,88.32C123.96,87.12 124.656,85.512 124.656,83.496C124.656,81.48 123.96,79.896 122.568,78.744C121.224,77.592 119.328,77.016 116.88,77.016C114.432,77.016 112.536,77.592 111.192,78.744C109.848,79.896 109.176,81.48 109.176,83.496C109.176,85.512 109.848,87.12 111.192,88.32C112.536,89.472 114.432,90.048 116.88,90.048ZM116.88,112.224C122.928,112.224 125.952,109.944 125.952,105.384C125.952,100.872 122.928,98.616 116.88,98.616C113.952,98.616 111.696,99.192 110.112,100.344C108.576,101.448 107.808,103.128 107.808,105.384C107.808,107.64 108.576,109.344 110.112,110.496C111.696,111.648 113.952,112.224 116.88,112.224Z" fill="#000000"/>
</svg>
